X: 8969
T: Cutting Bracken
R: strathspey
M: 4/4
K: Adorian
|:(3AAA a2 g<e g2|e<dB>A G>AB<G|(3AAA a2 g<e g2|e>dB>e A2 A2:|
|:e>dB>A G>AB<G|e<dB>A B<d g2|1 e<dB>A G>AB<G|e<dB<e A2 A2:|
[2 e<dB>d g>fg<d|e<dg<B A2 A2||

